public/MobilePreview/star.svg

<svg width="44" height="44" viewBox="0 0 44 44" fill="none" xmlns="http://www.w3.org/2000/svg">
<path d="M24.4995 6.76726L24.5002 6.76867L27.7241 13.2165C27.7246 13.2174 27.7251 13.2184 27.7255 13.2193C28.013 13.8047 28.5097 14.3305 29.0478 14.7276C29.5873 15.1256 30.2364 15.4445 30.8777 15.5514L30.8781 15.5514L36.726 16.5231C38.4667 16.8132 39.284 17.5433 39.5109 18.2494C39.7374 18.9539 39.4995 20.0193 38.2458 21.2644L38.244 21.2663L33.6973 25.8129C33.2 26.3103 32.8489 26.9977 32.6518 27.686C32.4547 28.3747 32.3894 29.1424 32.5425 29.8256L32.5425 29.8256L32.5436 29.8306L33.8452 35.4583C34.3439 37.6226 33.9244 38.7392 33.3573 39.1526C32.7889 39.567 31.5928 39.6256 29.6775 38.4942L24.1967 35.2497C24.1966 35.2496 24.1965 35.2496 24.1964 35.2495C23.5575 34.871 22.7613 34.7049 22.0062 34.7049C21.2504 34.7049 20.4523 34.8713 19.8072 35.2467L19.8072 35.2466L19.8023 35.2495L14.3206 38.4945L14.3199 38.4949C12.4174 39.624 11.2203 39.5632 10.6485 39.1459C10.0773 38.7291 9.65561 37.61 10.1534 35.459L10.1534 35.4589L11.4551 29.8306L11.4551 29.8306L11.4562 29.8256C11.6093 29.1424 11.544 28.3747 11.3468 27.686C11.1498 26.9977 10.7987 26.3103 10.3013 25.8129L5.75467 21.2663C4.50935 20.0209 4.26954 18.9543 4.49505 18.2481C4.72034 17.5426 5.53275 16.813 7.27264 16.5231L13.1206 15.5515L13.1232 15.551C13.7562 15.4435 14.4004 15.1238 14.9363 14.7265C15.4711 14.33 15.9674 13.8046 16.2548 13.2194L19.4795 6.77007C19.4796 6.76988 19.4797 6.76968 19.4798 6.76949C20.3055 5.12693 21.2605 4.55701 21.9971 4.55701C22.7323 4.55701 23.6829 5.12541 24.4995 6.76726Z" fill="#FABF35" stroke="#FABF35" stroke-width="1.5" stroke-linecap="round" stroke-linejoin="round"/>
</svg>

<svg xmlns="http://www.w3.org/2000/svg" width="44" height="44" fill="none"><path fill="#FABF35" stroke="#FABF35" stroke-linecap="round" stroke-linejoin="round" stroke-width="1.5" d="M24.5 6.767v.002l3.224 6.447.002.003c.287.586.784 1.112 1.322 1.509.54.398 1.188.716 1.83.823h0l5.848.972c1.74.29 2.558 1.02 2.785 1.726.226.705-.012 1.77-1.265 3.015l-.002.002-4.547 4.547c-.497.497-.848 1.185-1.045 1.873-.197.689-.263 1.456-.11 2.14h0l.002.005 1.301 5.627c.499 2.165.08 3.281-.488 3.695-.568.414-1.764.473-3.68-.659l-5.48-3.244s0 0 0 0c-.64-.379-1.436-.545-2.19-.545-.757 0-1.555.166-2.2.542h0l-.005.002-5.481 3.245h-.001c-1.903 1.13-3.1 1.07-3.671.652-.572-.417-.993-1.536-.496-3.687h0l1.302-5.628h0l.001-.005c.153-.684.088-1.451-.11-2.14-.196-.688-.547-1.376-1.045-1.873l-4.546-4.547c-1.246-1.245-1.485-2.312-1.26-3.018.225-.705 1.038-1.435 2.778-1.725l5.848-.971.002-.001c.633-.107 1.277-.427 1.813-.825.535-.396 1.031-.921 1.319-1.507L19.48 6.77s0 0 0 0c.825-1.643 1.78-2.213 2.517-2.213.735 0 1.686.568 2.503 2.21Z"/></svg>
